X:1
T: Marr Lodge
C:Alexander Walker
R:Reel
Q: 232
K:A
M:4/4
L:1/8
|:f|eA cA BF Ff|eA cA B2 B1/2c1/2d|eA cA BF FG|AF EC A,3f|
eA cA BF Ff|eA cA B2 B1/2c1/2d|eA cA BF FG|AF EC A,3E|
A2 AF BE EF|A2 Ac B3c|A2 AF BE EG|AF EC A,2 A,c|
A2 AF BE EF|A1/2A1/2A cd e3g|fd df ec ce|dc BG A3:|
